X:1
T:Title
%%score { ( 1 3 ) | 2 }
L:1/8
M:6/4
K:Ab
V:1 treble nm="Grand Piano"
V:3 treble 
V:2 bass 
V:1
 z6 z4[Q:1/4=114] [CE]2 | [CA]3 [CG] [CF]2 [CA]2 [CG]2 [CF]2 | [CA]2 [CA]4- [CA]4 E2 | %3
 A2 G2 A2 B2 G2 E2 | c6- c4 c2 | [=Ec]2 [EG]2 [EA]2 [EB]2 [EA]2 [EG]2 | A2 A4- A4 cc | %7
 c B3 [GB]2 [A=d]2 [Ac]2 [AB]2 |[M:5/4] [Ge]2- [Ge]2- [Ge]6 |[M:1/4] [Ge]2 | %10
[M:6/4] [Ge]2 [Gd]2 [DGB]2 [B,DF] [B,DG]3 [G,DF]2 | [CE]6- [CE]2 z2 [Ec]2 | %12
 [=Ec]2 [EG]2 [EA]2 [EB] [Ec]3 [CEB]2 | [FA-]6 [_G-A]>G- G2 [DFA]2 | %14
 [DFA]2 [B,=EG]2 [A,FA]2 [_EB]2 [EA]2 B2 |[M:13/8] c2 c2 d2 e3 [Af]2 [Af]2 | %16
[M:6/4] [Ae]2 c2 A2 c3 A B2 |[M:5/4] [CA]2- [CA]2- [CA]6 |] %18
V:2
 z6 z4 [A,,A,]2 | [A,,A,]3 [A,,A,] [A,,A,]2 [A,,A,]2 [A,,A,]2 [A,,A,]2 | %2
 [A,,E,]2 [A,,E,]4- [A,,E,]4 [E,A,C]2 | [A,CE]2 [B,DE]2 [A,CE]2 [G,B,E]2 [E,B,E]2 [E,G,]2 | %4
 [A,E]6- [A,E]4 [A,E]2 | [C,G,]2 [C,C]2 [C,C]2 [C,C]2 [C,C]2 [C,C]2 | %6
 [F,CF]2 [F,CF]4- [F,CF]4 [F,A,F][F,A,F] | [G,B,E] [G,B,E]3 [F,B,]2 [B,,B,]2 [B,,B,]2 [=D,B,]2 | %8
[M:5/4] [E,B,]2- [E,B,]2- [E,B,]6 |[M:1/4] [E,B,]2 |[M:6/4] [E,B,]2 [E,B,]2 E,2 E, E,3 E,2 | %11
 A,,2 C,2 E,2 .A,4 [A,,A,]2 | [C,G,]2 [C,C]2 [C,C]2 [C,C] [C,G,]3 C,2 | F,2 F,2 F,2 .E,4 D,2 | %14
 D,2 D,2 D,2 [D,G,]2 [C,A,]2 [E,G,E]2 | %15
[M:13/8][K:treble] [A,E]2 [A,E]2 [A,B,E]2 [A,CA]3[K:bass] [D,D]2 [D,D]2 | %16
[M:6/4] [E,C]2 [E,A,E]2 [F,A,=D]2 [F,A,D]3 [F,A,D] [E,G,_D]2 | %17
[M:5/4] [A,,A,]2- [A,,A,]2- [A,,A,]6 |] %18
V:3
 x12 | x12 | x12 | x12 | x12 | x12 | x12 | x12 |[M:5/4] x10 |[M:1/4] x2 |[M:6/4] x12 | A,6 z6 | %12
 x12 | .C12 | x12 |[M:13/8] x13 |[M:6/4] x12 |[M:5/4] x10 |] %18

